X:1
T:Cercadme flores
T:José de Torres y Martinez Bravo [1665-1738]
T:Cercadme flores
T:Cantada al s[antísimo] s[acramento]
T:Copyright © 
T:Copyright © 
T:Copyright © 
T:Copyright © 
T:Copyright © 
T:Copyright © 
T:Copyright © 
T:Copyright © 
T:Copyright © 
T:Copyright © 
T:Copyright © 
C:José de Torres y Martinez Bravo [1665-1738]
Z:Copyright ©
%%score 1 { 2 3 }
L:1/8
M:4/4
K:C
V:1 treble nm="[Soprano]" snm="S."
V:2 treble nm="P2"
V:3 bass nm="Continuo" snm="Cont."
V:1
"^Aria. Despacio [Adagio]" z A _B>c d2 ^c2 | z8 | z8 | z ^c d>e f2 e2 | z8 | z4 z A B>^c | %6
w: Cer- cad- me flo- res,|||co- piad pri- mo- res,||de mi do-|
 d2 c2 (_B2 A2 | G2 F2 _B>A A2- | A2) G>A A4 | A4 z2 A2 | d8 | d2 _B2 c4 | c4 z2 c2 | %13
w: lor, pues mue- *||* ro de a-|mor, pues|mue-|ro de a-|mor, pues|
 z2 _B2 z2 A2- | A2 G4 F2 | z4 z2 A2 | _B>c Bc B>A GB | A>!courtesy!_B AB A>G FA | G>A GA G>F EG | %19
w: mue- *|* * ro,|pues|mue- * * * * * * *|||
 F>E FG F2 E>D | !fermata!D4 z4 | z8 | z2 f2 z c d>_e | (d>c) d2 z _B c>d | %24
w: * * * * ro de a-|mor.||Ay, ay que fa-|vo- * res, del dios de\_a-|
 (c>!courtesy!_B) c2 z2 A2 | (_B>c Bc) =B3 B | (c>d c>d) ^c2 z c | (d>e d>e) d4 | %28
w: mo- * res, lo-|gró _ _ _ mi ar-|do- * * * r, lo-|gr- * * * *|
 de/f/ ed (cB) (cd) | c2 (B>A) A4 ||[K:F]"^Recitative" z FGA B2 z B | ddef B2 BB | BB z d B>B cd | %33
w: * * * * * ó, _ lo- *|gró mi\_ar * dor.|El dul- ce\_a- fán, con|que\_al se- ñor bus- ca- ba\_el de-|se- o que\_a- man- te le\_an- he-|
 GG z/ d/d/e/ f3 _e | !courtesy!_ee z/ e/f/g/ c2 z c | _ee e>d dd z/ A/A/B/ | c2 z c _eedc | %37
w: la- ba, a la ciu- dad me|guí- an, su po- bla- ción mis|pa- sos dis- cu- rrí- an pa- ra\_en- con|trar, el due- ño\_a quien a-|
 BB z/ B/A/G/ ^c2 z e | fAdd dA z d/f/ | B2 BB BB z B | _eeeB c4 | z2 c2 d4- | d2 (_e(G G2) ^F2) | %43
w: do- ro, en tal do- lor, sus-|pi- ro, sien- to,\_y llo- ro, mis ex-|tre- mos mi- ra- ron, las|guar- das con cruel- dad,|me mal-|* tra- * * *|
 G8 || z8 | z8 | z8 | z8 | z8 | z8 | z4 z2 G2 | (^F>E) D2 z2 A>c | B4 z2 G2 | (c>=B) c2 z2 G2 | %54
w: ron.|||||||Que|dul- * ce es mi|mal, mi\_a-|man- * te sen-|
 d4 z2 G2 | (_ed) e2 z2 c2 | f4 z2 c2 | d6 e>f | g>f e>d ^c>d A>=B | ^c>d c>d A>=B A>B | %60
w: tir, si\_a-|li- * vio le-|al, po-|dra me- re-|ce- * * * * * * *||
 (^c>A) (d>e) d2 c>d | d4 z4 | z8 | z4 z2 f2 | (f>e) f2 z2 g>d | _e4 z2 e2 | %66
w: r, _ po- * dra me- re-|cer,||que|dul- * ce es mi|mal, mi\_a-|
 (!courtesy!_e>d) e2 z2 (fc) | d4 z2 d2 | (dc) d2 z2 (_eB) | c4 z2 c2 | (c>B) c2 z2 d>A | %71
w: man- * te sen- *|tir, si\_a-|li- * vio le- *|al, po-|dra _ _ me- re-|
 B>A B z2 GA>B | c>B c2 z2 B>c | d>c d2 z2 c>d | _e>d e>d c>B A>G | ^F>G F>G A>B A>B | %76
w: ce- * * * * *|||||
 (c^F) (G>c) B2 A>G | G8 | z8 | z GGA B>A B2 | z2 A2 d2 c>d | (B>A) G2 z2 G2 | (c>B) c2 z2 G2 | %83
w: r, _ po- * dra me- re-|cer.||Pues o- cul- ta- * do,|mi due- ño sa-|gra- * do, le|pue- * de ya|
 A>G F>G A>B A>B | c>B A>B c>d c>d | B>A G>A B>c B>c | d>c =B>c d>c d>e | ^c4 z2 A2 | %88
w: ve- * * * * * * *||||r, le|
 (d>^c) d2 z2 A2 | e4 z2 E2 | F4 F>E F>G | F3 E E3 D | D8 ||"^Recitative" z2 z _e G>F GA | %94
w: pue- * de ya|ver, le|pue- * * * *|* * de ya|ver.|De can- di- das es-|
 =BB z d B>B Bc | dd d>e cc z G | cc z c/e/ AAAA | AA z2 ee z/ A/A/A/ | BB B>A FF z A/A/ | %99
w: pi- gas, le ven ha- cien- do|tro- no mis fa- ti- gas, ay|cie- los, ya\_es el al- ma ven- tu-|ro- sa, cuan- do pu- ro re-|tra- to de la\_es- po- sa, po- se-|
 d2 dd dd z =B/B/ | e2 z =B/c/ dd d>c | cc z c ccde | AA z/ A/B/c/ dd z A | B>B ^cd dA z2 || %104
w: sión a- se- gu- ra, lo que|fue fiel de- se- o,\_y ya\_es dul-|zu- ra, en e- sa\_es- fe- ra|san- ta, col- mo de glo- ria, y|de fi- ne- za tan- ta.|
[K:C][M:3/8] z3 | z3 | z3 | z3 | z3 | z3 | z3 | z3 | z3 | z (Ad) | ^c3 | z eA | f2 f | z dA | %118
w: |||||||||Lo- *|grar,|su pu-|re- za,|su be-|
 B B2 | z df | e e2 | z cG | A3 | z fc | d d2 | z dA | _B2 A | A G2 | A3- | A3 | z3 | z3 | z3 | %133
w: lle- ,|hoy se\_a-|lien- ta,|mi\_a- do-|rar,|hoy se\_a-|lien- ta,|hoy se\_a-|lien- ta|mi\_a- do-|rar,|_||||
 z ^cA | d/e/d/e/d/e/ | d_BG | c/d/c/d/c/d/ | cAF | _B/c/B/c/B/c/ | !courtesy!_BGE | A3- | A3 | %142
w: hoy se\_a-|lien- * * * * *||||||||
 A3 | z3 | z _BB | A2 d | d ^c2 | d3 || z3 | z3 | z3 | z3 | z3 | z3 | z3 | z3 | z3 | z3 | z3 | %159
w: ta,||hoy se\_a-|lien- ta|mi\_a- do-|rar.||||||||||||
 z dd | d2 d | z eB | c2 c | z cc | c2 c- | c (d/c/) (d/c/) | _B2 B | z d_B | c2 c | z cG | %170
w: Si lu-|cien- te,|sa- cra\_es-|pi- ga,|ya me\_in-|du- ce,|_ ya _ me\_o- *|bli- ga,|que le|fi- ga|por a-|
 A/B/A/B/A/B/ | Add | d2 d | d c2 | B/c/B/c/B/c/ | BdB | c/d/c/d/c/d/ | cec | d/e/d/e/d/e/ | dfd | %180
w: ma- * * * * *|r, que le|fi- ga|por a-|ma- * * * * *||||||
 e3 | z d>e | e3 | z3 | d3 | z3 | B3 | z eB | c2 c | z ef | d2 c | c B2 | A3 |] %193
w: r,|por a-|mar,||que,||que,|que le|fi- ga,|que le|fi- ga|por a-|mar.|
V:2
 z8 | z8 | z8 | z8 | z8 | z8 | z8 | z8 | z8 | z8 | z8 | z8 | z8 | z8 | z8 | z8 | z8 | z8 | z8 | %19
 z8 | z8 | z8 | z8 | z8 | z8 | z8 | z8 | z8 | z8 | z8 ||[K:F][K:treble] z FGA B2 z B | ddef B2 BB | %32
 BB z dB>B cd | GG z/ d/d/e/ f3 _e | !courtesy!_ee z/ e/f/g/ c2 z c | _ee e>d dd z/ A/A/B/ | %36
 c2 z c _eedc | BB z/ B/A/G/ ^c2 z e | fAdd dA z d/f/ | B2 BBBB z B | _eeeB c4 | z2 c2 d4- | %42
 d2 _e(G G2) ^F2 | G8 || z8 | z8 | z8 | z8 | z8 | z8 | z8 | z8 | z8 | z8 | z8 | z8 | z8 | z8 | z8 | %59
 z8 | z8 | z8 | z8 | z8 | z8 | z8 | z8 | z8 | z8 | z8 | z8 | z8 | z8 | z8 | z8 | z8 | z8 | z8 | %78
 z8 | z8 | z8 | z8 | z8 | z8 | z8 | z8 | z8 | z8 | z8 | z8 | z8 | z8 | z8 || z2 z _e G>F GA | %94
 =BB z d B>B Bc | dd d>e cc z G | cc z c/e/ AAAA | AA z2 ee z/ A/A/A/ | BB B>A FF z A/A/ | %99
 d2 dd dd z =B/B/ | e2 z =B/c/ dd d>c | cc z c ccde | AA z/ A/B/c/ dd z A | B>B ^cd dA z2 || %104
[K:C][M:3/8] z3 | z3 | z3 | z3 | z3 | z3 | z3 | z3 | z3 | z3 | z3 | z3 | z3 | z3 | z3 | z3 | z3 | %121
 z3 | z3 | z3 | z3 | z3 | z3 | z3 | z3 | z3 | z3 | z3 | z3 | z3 | z3 | z z z | z3 | z3 | z3 | z3 | %140
 z3 | z3 | z3 | z3 | z3 | z3 | z3 | z3 || z3 | z3 | z3 | z3 | z3 | z3 | z3 | z3 | z3 | z3 | z3 | %159
 z3 | z3 | z3 | z3 | z3 | z3 | z3 | z3 | z3 | z3 | z3 | z3 | z3 | z3 | z3 | z3 | z3 | z3 | z3 | %178
 z3 | z3 | z3 | z3 | z3 | z3 | z3 | z3 | z3 | z3 | z3 | z3 | z3 | z3 | z3 |] %193
V:3
 D,2 C,2 _B,,2 A,,2 | D,>A, B,>^C D2 C2 | D/!courtesy!^C/D/B,/ C/B,/C/A,/ D2 A,2 | %3
 F,>A,, B,,>^C, D,2 C,2 | F,,>^C, D,>E, F,2 E,2 | %5
 F,/E,/F,/E,/ E,/D,/E,/!courtesy!^C,/ F,>F, G,>A, | _B,2 A,2 G,2 F,2 | E,2 D,2 G,,2 A,,2 | %8
 _B,,4 A,,2 D/C/D/!courtesy!_B,/ | ^C/B,/C/A,/ D/C/D/B,/ C2 D2 | %10
"^3b" ^F,2 G,/F,/G,/E,/ F,/E,/F,/D,/ G,/F,/G,/E,/ | ^F,2 G,2 E,2 F,/E,/F,/D,/ | %12
 E,/D,/E,/C,/"^6" E, z E,2 z2 |"^76""^b" D,2 z2 C,2 z2 | %14
"^76" _B,,2 z2 A,,2 D,/^C,/D,/!courtesy!=B,,/ | ^C,/B,,/C,/A,,/ D,/C,/D,/B,,/ C,2 D,2 | %16
"^3b" G,,2 z2 G,,2 C,2 | F,,4 F,2 _B,2 | E,4 E,2"^3b" A,2 | D,4"^3x" A,,4 | %20
 D,>E,"^65" F,>G, A,>A, !courtesy!_B,>C | D2 G,2 A,2 A,,2 | !fermata!D,4"^6" A,2 z2 | %23
 ^F,2"^3b" z2 G,2 z2 | E,2 z2 F,2 z2 | D,4"^6b" G,2"^3x" F,2 | E,4"^6b" A,2"^3x" G,2 | %27
 F,4"^6" _B,2"^3x" A,2 | ^G,4"^6" A,2 D,2 |"^65" E,4 A,,4 ||[K:F] B,,8 | B,,4 D,4- | D,8 | =B,,8 | %34
 C,8 | C,4 ^F,4- | F,8 | G,4"^6x" E,4 | D,3 G,"^43""^x" A,2 D,2 | _E,8 | !courtesy!_E,4 z2 =E,2 | %41
 F,6 ^F,2 | G,2 C,2"^43" D,4 | G,,8 ||"^Aria. Despacio [Adagio]" G,,>G, G,>G, G,2 G,,2 | %45
 D,>D D>D D2 ^F,2 | G,>G,, G,,>G,, G,,2 =B,,2 |"^3b" C,>C C>C C2 C,2 | D,>D _E>C D>A, B,>^F, | %49
 G,>^F, G,C, D,2"^3x" D,,2 | G,,>G, G,>G, G,2 G,,2 | z D D>D D2 D,2 | z G, G,>G, G,2 G,,2 | %53
 z _E, E,>E, E,2 C,2 | z =B,, B,,>B,, B,,2 G,,2 | z C C>C C2 C,2 | z"^6" A, A,>A, A,2 A,,2 | %57
 z B, B,>B, B,2 A,2 | G,2 z2"^3x" A,2 z2 | A,,2 z2 z4 | A,>G, F,G, A,2 A,,2 | z D D>D D2 D,2 | %62
 A,,>A, A,>A, A,2 ^C,2 |"^3b" D,>D D>D D2 D,2 | G,,>=B, B,>B, B,2 G,2 |"^3b" C,>C C>C C2 C,2 | %66
 F,,>A, A,>A, A,2 F,2 | B,,>B, B,>B, B,2 B,,2 | _E,>G, G,>G, G,2 E,2 | C,>A, A,>A, A,2 C,2 | %70
 D,>^F, F,>F, F,2 D,2 | G,,>G, G,>G, G,2 G,,2 | z A, A,>A, A,2 A,,2 | z C C>C C2 C,2 | F,2 z2 z4 | %75
 D,>C, B,,C, D,2 D,,2 | z G, G,>G, G,2 G,,2 |"^3x" D,>D _E>C D>A, B,>^F, | G,>^F, G,>C, F,2 D,,2 | %79
 !fermata!G,,4 z2 G,2 | ^F,4 z2 D,2 | G,,>G, G,>G, G,2 G,,2 | z E, E,>"^6"E, E,2 C,2 | %83
 z F, F,>F, F,2 F,,2 | z ^F, F,>F, F,2 D,2 | z G, G,>G, G,2 G,,2 | z ^G, G,>G, G,2 E,2 | %87
 z A, A,>A,"^4x" A,2 G,2 | z F,"^6" F,>F, F,2 D,2 | z ^C, C,>C, C,2 A,,2 | z D, D,>D, D,2 G,,2 | %91
"^65" A,,8 | D,,8 || _E,8 | D,8 | D,4 E,4 | E,4 ^C,4 | !courtesy!^C,8 | !courtesy!^C,4 D,4 | %99
 D,4 ^G,4 | !courtesy!^G,8 | A,8 | F,4 ^F,4 | G,4"^43x" A,2 F,2 || %104
[K:C][M:3/8]"^Aria. Airoso [Vivace]" D,/E,/F,/G,/A, | D,F,D, | A,/B,/^C/D/E | A,^CA, | %108
 D,/E,/F,/G,/A, | D,F,D, | G,/A,/_B,/C/D | G,A,A,, | D,/E,/F,/G,/A, | D,F,D, | %114
 A,/B,/!courtesy!^C/D/E | A,^CA, | D,/E,/F,/G,/A, | D,^F,D, | G,/A,/B,/C/D | G,B,G, | %120
 C,/D,/E,/F,/G, | C,E,C, | F,/G,/A,/B,/C | F,A,F, | _B,/A,/B,/C/D | ^F,D,F, | %126
 G,,/A,,/!courtesy!_B,,/C,/D, | A,, _B,,2 | A,,/B,,/^C,/D,/E, | A,,^C,A,, | D,/E,/F,/G,/A, | %131
 D,F,D, | A,/B,/^C/D/E | A,A,,A, | ^F,3 | F,G,"^3b"G,, |"^6" E,3 | E,F,F,, |"^6b" D,3 | D,E,E,, | %140
 ^C,/D,/C,/B,,/A,, | ^C,A,,C, | D,/E,/F,/G,/A, | D,F,D, | G,/A,/_B,/C/D | G,_B,G, | %146
 A,/G,/F,/E,/D, | G,A,A,, || D,/E,/F,/G,/A, | D,F,D, | A,/B,/^C/D/E | A,DD, | G,/A,/B,/C/D | %153
 G,CC, | F,/G,/A,/B,/C | F,_B,G, | A,/G,/F,/E,/D, | G,, A,,2 | D,/E,/F,/G,/A, | D,F,D, | %160
 E,/^F,/^G,/A,/B, | E,^G,E, | A,,/B,,/C,/D,/E, | A,,C,A,, | D,/E,/^F,/G,/A, | D,^F,D, | %166
 G,/A,/_B,/C/D | G,_B,G, | C,/D,/E,/F,/G, | C,E,C, | F,3 | F,D,B,, | E,/^F,/^G,/A,/B, | E,A,A,, | %174
 ^G,3 | !courtesy!^G,E,G, | A,3 | A,CA, | B,3 | B,DB, | C,/D,/E,/F,/G, | C, F,2 | %182
 E,/^F,/^G,/A,/B, | E,^G,E, | A,/B,/C/D/E | A,CA, | ^G,/A,/G,/F,/E, | ^G,E,G, | A,/^G,/A,/B,/C | %189
 A,CA, | D,/E,/F,/=G,/A, | D, E,2 | A,,3 |] %193

